svgs/duotone/monkey.svg

<svg xmlns="http://www.w3.org/2000/svg" viewBox="0 0 640 512"><!-- Font Awesome Pro 6.0.0-alpha2 by @fontawesome - https://fontawesome.com License - https://fontawesome.com/license (Commercial License) --><defs><style>.fa-secondary{opacity:.4}</style></defs><path d="M512 64H448C421.49 64 400 85.49 400 112C400 132.869 413.4 150.451 432 157.062V176C432 202.51 453.49 224 480 224S528 202.51 528 176V157.062C546.6 150.451 560 132.869 560 112C560 85.49 538.51 64 512 64ZM440 120C431.125 120 424 112.875 424 104S431.125 88 440 88S456 95.125 456 104S448.875 120 440 120ZM520 120C511.125 120 504 112.875 504 104S511.125 88 520 88S536 95.125 536 104S528.875 120 520 120Z" class="fa-secondary"/><path d="M549.5 267.25C529.375 280.25 505.625 288 480 288C423.375 288 375.75 250.75 358.875 199.625C262.875 224.875 192 312 192 416V448C174.375 448 160 433.625 160 416V180.697C160 138.855 129.967 100.658 88.34 96.426C40.486 91.561 0 129.125 0 176V224C0 241.625 14.375 256 32 256S64 241.625 64 224V176C64 167.125 71.125 160 80 160S96 167.125 96 176V416C96 469.02 138.98 512 192 512H432C440.875 512 448 504.875 448 496C448 469.6 426.4 448 400 448H352L507.625 344.25L542.375 448.25L544 458.375V480C544 497.674 558.326 512 576 512S608 497.674 608 480V458.375C608 448 606.375 437.75 603 428L549.5 267.25ZM592 64H570.125C556.875 26.75 521.75 0 480 0S403.125 26.75 389.875 64H368C341.5 64 320 85.5 320 112S341.5 160 368 160H384C384 213 427 256 480 256S576 213 576 160H592C618.5 160 640 138.5 640 112S618.5 64 592 64ZM528 157.062V176C528 202.51 506.51 224 480 224S432 202.51 432 176V157.062C413.4 150.451 400 132.869 400 112C400 85.49 421.49 64 448 64H512C538.51 64 560 85.49 560 112C560 132.869 546.6 150.451 528 157.062Z" class="fa-primary"/></svg>

<svg xmlns="http://www.w3.org/2000/svg" viewBox="0 0 640 512"><!--! Font Awesome Pro 6.0.0-alpha3 by @fontawesome - https://fontawesome.com License - https://fontawesome.com/license (Commercial License) --><defs><style>.fa-secondary{opacity:.4}</style></defs><path class="fa-primary" d="M549.5 267.3C529.4 280.3 505.6 288 480 288c-56.63 0-104.3-37.25-121.1-88.38C262.9 224.9 192 312 192 416v32c-17.62 0-32-14.38-32-32V180.7c0-41.84-30.03-80.04-71.66-84.27C40.49 91.56 0 129.1 0 175.1V224c0 17.62 14.38 32 32 32s32-14.38 32-32V176C64 167.1 71.13 160 80 160S96 167.1 96 176V416c0 53.02 42.98 96 96 96h240c8.875 0 16-7.125 16-16c0-26.4-21.6-48-48-48H352l155.6-103.8l34.75 104L544 458.4V480c0 17.67 14.33 32 32 32s32-14.33 32-32v-21.62C608 448 606.4 437.8 603 428L549.5 267.3zM592 64h-21.88C556.9 26.75 521.8 0 480 0s-76.88 26.75-90.13 64H368C341.5 64 320 85.48 320 111.1S341.5 160 368 160H384c0 53 43 96 96 96s96-43.04 96-96.04L592 160C618.5 160 640 138.5 640 111.1S618.5 64 592 64zM528 157.1V176C528 202.5 506.5 224 480 224s-48-21.49-48-48V157.1c-18.6-6.611-32-24.19-32-45.06C400 85.49 421.5 64 448 64h64c26.51 0 48 21.49 48 48C560 132.9 546.6 150.5 528 157.1z"/><path class="fa-secondary" d="M512 64h-64c-26.51 0-48 21.49-48 48c0 20.87 13.4 38.45 32 45.06V176C432 202.5 453.5 224 480 224s48-21.49 48-48V157.1c18.6-6.611 32-24.19 32-45.06C560 85.49 538.5 64 512 64zM440 120c-8.875 0-16-7.125-16-16s7.125-16 16-16s16 7.125 16 16S448.9 120 440 120zM520 120c-8.875 0-16-7.125-16-16s7.125-16 16-16s16 7.125 16 16S528.9 120 520 120z"/></svg>
